assets/sonr-icons/logo-chrome.svg

<svg xmlns="http://www.w3.org/2000/svg" width="24" height="24" fill="none" viewBox="0 0 24 24"><path fill="#000" fill-rule="evenodd" d="M1.44 12C1.44 9.68213 2.18675 7.53869 3.4528 5.79714C3.48205 5.74921 3.51566 5.70361 3.55346 5.66098C5.48016 3.09778 8.54646 1.44 12 1.44C16.3099 1.44 20.0166 4.02179 21.6581 7.72315C21.6758 7.75774 21.6914 7.79354 21.7049 7.83039C22.2552 9.10952 22.56 10.5192 22.56 12C22.56 17.8322 17.8322 22.56 12 22.56C11.6207 22.56 11.2461 22.54 10.8772 22.501C10.838 22.4991 10.7988 22.4948 10.7598 22.4879C5.51205 21.8741 1.44 17.4126 1.44 12ZM3.36 12C3.36 10.6275 3.68002 9.32975 4.2495 8.1773L7.74745 14.2284C8.55017 15.7573 10.1532 16.8 12 16.8C12.1935 16.8 12.3843 16.7886 12.5717 16.7663L10.4202 20.4959C6.40284 19.7536 3.36 16.2322 3.36 12ZM7.58553 10.1119L5.43192 6.38633C7.01657 4.53401 9.37116 3.36 12 3.36C14.9957 3.36 17.6352 4.8845 19.1851 7.2H12C10.0192 7.2 8.31878 8.39953 7.58553 10.1119ZM16.8 12C16.8 10.9194 16.443 9.92221 15.8405 9.12H20.1484C20.4668 10.0208 20.64 10.9902 20.64 12C20.64 16.5823 17.073 20.3313 12.5641 20.6219L16.0598 14.5621C16.5287 13.8208 16.8 12.9421 16.8 12ZM14.88 12C14.88 12.499 14.7532 12.9683 14.53 13.3775C14.5161 13.3977 14.5029 13.4187 14.4904 13.4403L14.4209 13.5608C13.9081 14.3546 13.0155 14.88 12 14.88C10.9602 14.88 10.0492 14.3292 9.54295 13.5034C9.53255 13.4819 9.52129 13.4606 9.50913 13.4396L9.43568 13.3125C9.23387 12.9189 9.12 12.4728 9.12 12C9.12 10.4092 10.4092 9.12 12 9.12C13.5908 9.12 14.88 10.4092 14.88 12Z" clip-rule="evenodd"/></svg>

<svg xmlns="http://www.w3.org/2000/svg" width="24" height="24" fill="none"><path fill="currentColor" fill-rule="evenodd" d="M1.44 12c0-2.318.747-4.461 2.013-6.203a1 1 0 0 1 .1-.136A10.54 10.54 0 0 1 12 1.44a10.56 10.56 0 0 1 9.705 6.39c.55 1.28.855 2.69.855 4.17 0 5.832-4.728 10.56-10.56 10.56a11 11 0 0 1-1.24-.072C5.512 21.874 1.44 17.413 1.44 12m1.92 0c0-1.373.32-2.67.89-3.823l3.497 6.051a4.8 4.8 0 0 0 4.825 2.538l-2.152 3.73A8.64 8.64 0 0 1 3.36 12m4.226-1.888L5.432 6.386A8.62 8.62 0 0 1 12 3.36a8.63 8.63 0 0 1 7.185 3.84H12c-1.98 0-3.681 1.2-4.414 2.912M16.8 12a4.78 4.78 0 0 0-.96-2.88h4.308a8.64 8.64 0 0 1-7.584 11.502l3.496-6.06c.469-.741.74-1.62.74-2.562m-1.92 0c0 .499-.127.968-.35 1.377l-.04.063-.07.12A2.88 2.88 0 0 1 12 14.88c-1.04 0-1.95-.55-2.457-1.377l-.034-.063-.073-.127A2.88 2.88 0 1 1 14.88 12" clip-rule="evenodd"/></svg>
